icons/14x14_phone_filled.svg

<svg xmlns="http://www.w3.org/2000/svg" width="14" height="14" viewBox="0 0 14 14">
  <path d="M6.40550707,7.64708352 C6.9269564,8.15978335 7.36997825,8.48968348 7.73087178,8.67487882 C7.77290404,8.696448 7.81104774,8.71465977 7.84441108,8.72989591 L8.79103216,7.72048088 C9.16954168,7.32262733 9.78012629,7.21434027 10.3022519,7.47280142 L12.4019146,8.68265428 C12.7084056,8.84777868 12.9216125,9.13585195 12.9816098,9.47648274 C13.0439317,9.83084308 12.9311347,10.1893784 12.6814217,10.4517316 L10.7486632,12.4968215 C10.5162417,12.7397055 10.1566252,12.9279676 9.82402517,12.9796548 C9.745809,12.9913908 9.63586857,12.9999567 9.49479977,12.9999567 C8.00280159,12.9999567 6.10147426,12.2039694 3.99493605,10.132006 C2.59502869,8.75550505 1.73115597,7.41416404 1.29994396,6.15559862 C1.02540251,5.35430281 0.966675419,4.72913978 1.01254988,4.33379447 C1.05156551,4.00075827 1.22458763,3.6328851 1.45166441,3.39804126 L3.38358742,1.35550612 C3.64334207,1.08307319 4.00442022,0.955801006 4.37145673,1.01368554 C4.73732362,1.07190961 5.04311682,1.30874014 5.18923439,1.62054763 L6.37089678,3.79363351 C6.60174252,4.28096763 6.5131436,4.87360413 6.1527324,5.25190181 L5.2590673,6.20329298 C5.58124073,6.65132947 5.9880023,7.23635053 6.40550707,7.64708352 Z"/>
</svg>

<svg width="14" height="14" fill="none" xmlns="http://www.w3.org/2000/svg"><path d="M6.405 7.647c.522.513.965.843 1.326 1.028l.113.055.947-1.01a1.29 1.29 0 0 1 1.511-.247l2.1 1.21c.306.165.52.453.58.793a1.13 1.13 0 0 1-.3.976l-1.933 2.045a1.72 1.72 0 0 1-.925.483 2.29 2.29 0 0 1-.33.02c-1.491 0-3.393-.796-5.5-2.868C2.596 8.756 1.732 7.414 1.3 6.156c-.275-.802-.333-1.427-.288-1.822a1.73 1.73 0 0 1 .44-.936l1.932-2.042c.26-.273.62-.4.987-.342.366.058.672.295.818.607l1.182 2.173c.23.487.142 1.08-.218 1.458l-.894.951c.322.448.729 1.033 1.146 1.444Z" fill="#000"/></svg>
